X: 1
T: A Man Drives in the Game Duplication of No.214
N: Derived from A_Man_Drives_in_the_Game-Duplication_(a)_of_No_214.krn
%%abc-version 2.0
%%abcx-abcm2ps-target-version 5.9.1 (29 Sep 2008)
%%abc-creator hum2abc beta
%%abcx-conversion-date 2019/03/15 08:38:45
%%humdrum-veritas 296388969
%%humdrum-veritas-data 1120565342
%%linebreak <none>
%%barnumbers 0
L: 1/4
M: 2/4
K: F clef=bass
[K:clef=bass][M:2/4]CC/ z/ | 
(A,/G,/)F, | 
G,z | 
G,D,/ z/ | 
F,/F,/D, | 
D,z | 
(F,/D,/ F,/) z/ | 
F,/F,/F, | 
G,z | 
G,D,/ z/ | 
F,/G,/D, | 
D,z | 
CC | 
D/C/-C | 
A,/G,/F, | 
G,z | 
G,F, | 
F,/F,/F, | 
G,z | 
G,D, | 
F,/F,/D, | 
D,2 | 
CC/ z/ | 
A,/G,/F, | 
G,z | 
G,D,/ z/ | 
F,/F,/D, | 
D,z | 
F,/D,/ F,/ z/ | 
F,/F,/F, | 
G,z | 
G,D,/ z/ | 
F,/F,/D, | 
D,z | 
CC | 
CC | 
A,/G,/F, | 
G,z | 
G,F, | 
F,/F,/F, | 
G,z | 
G,D, | 
F,/F,/D, | 
D,A,/F,/ | 
A,2 | 
A,,//A,,//A,,/ B,,/A,,/ |]  



